symbolic/32x32/apps/com.github.keyilan.swatches.svg

<svg xmlns="http://www.w3.org/2000/svg" width="32" height="32" version="1">
 <path style="opacity:0.2" d="m 2,22 0,6.9 C 2,30.0634 2.9506842,31 4.131579,31 l 22.736842,0 C 28.049316,31 28.743828,30.035696 29,28.9 L 29,22 Z"/>
 <path style="fill:#ffbf3f" d="M 4.131579,2 C 2.9506842,2 2,2.9366 2,4.1 l 0,17.57 27,0 L 29,4.1 C 29,2.9366 28.049316,2 26.868421,2 Z"/>
 <path style="fill:#e4e4e4" d="m 2,21 0,6.9 C 2,29.0634 2.9506842,30 4.131579,30 l 22.736842,0 C 28.049316,30 28.743828,29.035696 29,27.9 L 29,21 Z"/>
 <rect style="opacity:0.6;fill:#4f4f4f" width="9" height="2" x="4" y="26" rx="1" ry="1"/>
 <rect style="fill:#4f4f4f" width="19" height="2" x="4" y="23" rx="1" ry="1"/>
 <path style="fill:#ffffff;opacity:0.2" d="M 4.1308594 2 C 2.9499646 2 2 2.9362094 2 4.0996094 L 2 5.0996094 C 2 3.9362094 2.9499646 3 4.1308594 3 L 26.869141 3 C 28.050036 3 29 3.9362094 29 5.0996094 L 29 4.0996094 C 29 2.9362094 28.050036 2 26.869141 2 L 4.1308594 2 z"/>
 <path style="fill:#ffffff;opacity:0.2" d="M 2 21 L 2 22 L 29 22 L 29 21 L 2 21 z"/>
 <path style="opacity:0.1" d="m 2,20 0,1 27,0 0,-1 -27,0 z"/>
</svg>

<svg xmlns="http://www.w3.org/2000/svg" width="32" height="32" version="1"><path style="opacity:.2" d="M2 22v6.9c0 1.163.95 2.1 2.132 2.1h22.736c1.181 0 1.876-.964 2.132-2.1V22z"/><path style="fill:#ffbf3f" d="M4.132 2C2.95 2 2 2.937 2 4.1v17.57h27V4.1c0-1.163-.95-2.1-2.132-2.1z"/><path style="fill:#e4e4e4" d="M2 21v6.9c0 1.163.95 2.1 2.132 2.1h22.736c1.181 0 1.876-.964 2.132-2.1V21z"/><rect style="opacity:.6;fill:#4f4f4f" width="9" height="2" x="4" y="26" rx="1" ry="1"/><rect style="fill:#4f4f4f" width="19" height="2" x="4" y="23" rx="1" ry="1"/><path style="fill:#fff;opacity:.2" d="M4.13 2C2.95 2 2 2.936 2 4.1v1C2 3.936 2.95 3 4.13 3h22.74C28.05 3 29 3.936 29 5.1v-1c0-1.164-.95-2.1-2.13-2.1H4.13zM2 21v1h27v-1H2z"/><path style="opacity:.1" d="M2 20v1h27v-1H2z"/></svg>
